html/assets/images/static/brand-logo-dark.svg

<svg width="179" height="48" viewBox="0 0 179 48" fill="none" xmlns="http://www.w3.org/2000/svg">
<path d="M178.467 22.1696C178.916 15.6105 174.609 9.78823 168.209 8.32042C164.77 7.53184 161.23 8.13623 158.244 10.0242C155.749 11.6014 153.891 13.9153 152.888 16.6495C152.281 15.409 152.032 14.0189 152.19 12.6116C152.407 10.666 153.367 8.92193 154.902 7.69013C157.682 5.45965 161.754 5.59492 164.372 8.00672L168.369 3.62633C163.547 -0.817364 156.333 -1.062 151.202 3.0536C145.964 7.25267 144.756 14.6694 148.129 20.2873C144.864 19.5592 142.416 16.6265 142.416 13.1152C142.416 9.60403 145.062 6.42379 148.57 5.87409L147.657 0C141.193 1.01595 136.503 6.53316 136.503 13.1296C136.503 19.7261 141.517 25.4361 147.992 26.288C146.923 27.1601 145.629 27.7127 144.229 27.871C142.293 28.0897 140.386 27.54 138.851 26.3082C136.067 24.0777 135.294 20.0571 137.052 16.9574L131.912 14.0161C128.673 19.729 130.042 26.8521 135.174 30.9649C137.602 32.9104 140.509 33.8544 143.395 33.8544C146.737 33.8544 150.053 32.5852 152.573 30.1389C152.594 33.5004 150.294 36.554 146.889 37.3369C143.421 38.1312 139.81 36.2346 138.493 32.9191L133 35.1236C135.045 40.2696 139.907 43.47 145.217 43.47C146.208 43.47 147.213 43.3577 148.218 43.1275C154.75 41.628 159.042 35.4719 158.427 28.9387C161.056 31.0195 161.998 34.7293 160.48 37.8923C158.937 41.1157 155.211 42.7677 151.809 41.7345L150.099 47.4244C151.382 47.8129 152.679 48 153.954 48C158.908 48 163.55 45.1824 165.815 40.4566C167.344 37.262 167.548 33.6587 166.382 30.3116C165.408 27.517 163.576 25.1829 161.147 23.5913C162.487 23.2747 163.888 23.3381 165.219 23.8072C167.058 24.4547 168.538 25.7815 169.389 27.5601C170.932 30.7835 169.893 34.7409 166.972 36.7699L170.331 41.6625C175.715 37.9268 177.559 30.9131 174.71 24.967C173.178 21.7724 170.5 19.3692 167.17 18.1979C164.389 17.2193 161.431 17.2049 158.679 18.1202C159.266 16.8711 160.191 15.8091 161.385 15.055C163.034 14.0132 164.99 13.6793 166.903 14.1197C170.374 14.9169 172.805 18.1979 172.562 21.7609L178.461 22.1696H178.467Z" fill="#00999A"/>
<path d="M2.79499 9.21803V19.9713H0V6.16992H2.77505C3.83493 6.16992 4.29364 6.71392 4.71246 7.24065L10.3851 14.2809L16.0577 7.24065C16.4765 6.7168 16.9352 6.16992 17.9951 6.16992H20.7701V19.9713H17.9752V9.21803L11.4848 17.1276H9.28816L2.79784 9.21803H2.79499Z" fill="#343B41"/>
<path d="M42.5628 19.9717H39.4857L37.7478 16.5609H27.6818L25.9438 19.9717H22.8867L28.4796 8.89602C29.3371 7.18056 30.3771 5.97168 32.7134 5.97168C35.0496 5.97168 36.0696 7.18344 36.9472 8.89602L42.5628 19.9717ZM34.1351 9.48031C33.8359 8.89602 33.457 8.53336 32.7162 8.53336C31.9754 8.53336 31.5965 8.89602 31.2973 9.48031L28.981 13.9992H36.4315L34.1351 9.48031Z" fill="#343B41"/>
<path d="M56.0893 17.4224C57.7675 17.4224 58.4427 16.8656 58.4427 16.0971C58.4427 15.1703 57.625 14.704 55.6676 14.5429L49.0577 14.019C45.9806 13.7772 44.1458 12.6662 44.1458 10.1247C44.1458 7.20035 46.5818 6.16992 49.3996 6.16992H60.5055V8.75175H49.1403C47.8012 8.75175 47.0433 9.11441 47.0433 10.0441C47.0433 10.8097 47.5619 11.2156 49.7984 11.3969L56.0893 11.9006C59.306 12.1625 61.383 13.1929 61.383 15.9763C61.383 18.3163 59.9043 19.9713 56.0494 19.9713H44.0859V17.3895C47.9964 17.3895 53.6151 17.4224 56.0893 17.4224Z" fill="#343B41"/>
<path d="M63.9141 6.16992H75.1396C80.0316 6.16992 81.7097 8.53012 81.7097 13.0692C81.7097 17.6082 80.0316 19.9684 75.1396 19.9684H63.9141V6.16992ZM75.1396 8.97337H66.7717V17.1448H75.1396C78.3962 17.1448 78.7951 15.7114 78.7951 13.0692C78.7951 10.4269 78.3962 8.97337 75.1396 8.97337Z" fill="#343B41"/>
<path d="M99.0873 19.9717L97.3493 16.5609H87.2834L85.5454 19.9717H82.4883L88.0811 8.89602C88.9387 7.18056 89.9786 5.97168 92.3149 5.97168C94.6512 5.97168 95.6712 7.18344 96.5487 8.89602L102.162 19.9717H99.0873ZM93.7367 9.48031C93.4375 8.89602 93.0585 8.53336 92.3178 8.53336C91.577 8.53336 91.1981 8.89602 90.8989 9.48031L88.5826 13.9992H96.033L93.7367 9.48031Z" fill="#343B41"/>
<path d="M116.128 6.16992C119.485 6.16992 121.562 7.70405 121.562 10.4672C121.562 12.4043 120.542 13.5959 118.767 14.1198C120.505 14.6839 121.262 15.8151 121.262 17.2485V19.9713H118.308V17.188C118.308 16.4224 117.889 15.4323 116.071 15.4323H107.125V19.9713H104.27V6.16992H116.128ZM116.348 12.8677C118.106 12.8677 118.644 11.6962 118.644 10.7896C118.644 9.88291 118.106 8.71145 116.348 8.71145H107.119V12.8677H116.348Z" fill="#343B41"/>
<path d="M77.5748 31.03H66.7709C63.4944 31.03 63.0956 32.4835 63.0956 35.1258C63.0956 37.7681 63.4944 39.2015 66.7709 39.2015H77.5748V42.0251H66.7709C61.859 42.0251 60.1809 39.6649 60.1809 35.1258C60.1809 30.5868 61.859 28.2266 66.7709 28.2266H77.5748V31.03Z" fill="#343B41"/>
<path d="M83.151 28.2266V42.028H80.2961V28.2266H83.151Z" fill="#343B41"/>
<path d="M92.0163 42.0275V30.831H85.2268V28.229H101.663V30.831H94.874V42.0275H92.0191H92.0163Z" fill="#343B41"/>
<path d="M106.279 28.2266L110.473 33.3326C110.892 33.8565 111.431 34.3803 111.832 35.0884C112.231 34.3832 112.77 33.8565 113.211 33.3326L117.405 28.2266H121.559L114.81 35.6727C114.371 36.1562 113.271 37.2471 113.271 38.0732V42.028H110.416V38.0732C110.416 37.227 109.297 36.1361 108.878 35.6727L102.128 28.2266H106.282H106.279Z" fill="#343B41"/>
</svg>

<svg width="179" height="48" fill="none" xmlns="http://www.w3.org/2000/svg"><path d="M178.467 22.17c.449-6.56-3.858-12.382-10.258-13.85a13.059 13.059 0 00-9.965 1.704 13.17 13.17 0 00-5.356 6.626 7.302 7.302 0 01-.698-4.038 7.303 7.303 0 012.712-4.922c2.78-2.23 6.852-2.095 9.47.317l3.997-4.38c-4.822-4.444-12.036-4.689-17.167-.573-5.238 4.199-6.446 11.615-3.073 17.233-3.265-.728-5.713-3.66-5.713-7.172 0-3.511 2.646-6.691 6.154-7.24L147.657 0c-6.464 1.016-11.154 6.533-11.154 13.13 0 6.596 5.014 12.306 11.489 13.158a7.212 7.212 0 01-3.763 1.583 7.23 7.23 0 01-5.378-1.563c-2.784-2.23-3.557-6.25-1.799-9.35l-5.14-2.942c-3.239 5.713-1.87 12.836 3.262 16.949a13.105 13.105 0 008.221 2.89 13.17 13.17 0 009.178-3.716c.021 3.361-2.279 6.415-5.684 7.198-3.468.794-7.079-1.102-8.396-4.418L133 35.124c2.045 5.146 6.907 8.346 12.217 8.346.991 0 1.996-.112 3.001-.343 6.532-1.499 10.824-7.655 10.209-14.188a7.368 7.368 0 012.053 8.953c-1.543 3.224-5.269 4.876-8.671 3.842l-1.71 5.69a13.29 13.29 0 003.855.576c4.954 0 9.596-2.818 11.861-7.543a13.255 13.255 0 00.567-10.145 13.172 13.172 0 00-5.235-6.72 7.207 7.207 0 014.072.215 7.268 7.268 0 014.17 3.753c1.543 3.224.504 7.18-2.417 9.21l3.359 4.892c5.384-3.735 7.228-10.749 4.379-16.695a13.152 13.152 0 00-7.54-6.77 13.048 13.048 0 00-8.491-.077 7.267 7.267 0 012.706-3.065 7.218 7.218 0 015.518-.935c3.471.797 5.902 4.078 5.659 7.64l5.899.41h.006z" fill="#00999A"/><path d="M2.795 9.218v10.753H0V6.17h2.775c1.06 0 1.519.544 1.937 1.07l5.673 7.04 5.673-7.04c.419-.523.877-1.07 1.937-1.07h2.775v13.8h-2.795V9.218l-6.49 7.91H9.288l-6.49-7.91h-.003zm39.768 10.754h-3.077l-1.738-3.411H27.682l-1.738 3.41h-3.057L28.48 8.897c.857-1.715 1.897-2.924 4.233-2.924 2.337 0 3.357 1.211 4.234 2.924l5.616 11.076zM34.135 9.48c-.3-.584-.678-.947-1.419-.947-.74 0-1.12.363-1.419.947L28.981 14h7.45l-2.296-4.52zm21.955 7.942c1.677 0 2.353-.556 2.353-1.325 0-.927-.818-1.393-2.775-1.554l-6.61-.524c-3.077-.242-4.912-1.353-4.912-3.894 0-2.925 2.436-3.955 5.254-3.955h11.105v2.582H49.14c-1.339 0-2.097.362-2.097 1.292 0 .766.519 1.172 2.755 1.353l6.291.504c3.217.261 5.294 1.292 5.294 4.075 0 2.34-1.479 3.995-5.334 3.995H44.086V17.39c3.91 0 9.53.032 12.003.032zM63.914 6.17H75.14c4.892 0 6.57 2.36 6.57 6.9 0 4.538-1.678 6.898-6.57 6.898H63.914V6.17zM75.14 8.973h-8.368v8.172h8.368c3.256 0 3.655-1.434 3.655-4.076 0-2.642-.399-4.096-3.655-4.096zm23.947 10.999L97.35 16.56H87.283l-1.738 3.41h-3.057l5.593-11.075c.858-1.715 1.898-2.924 4.234-2.924 2.336 0 3.356 1.211 4.234 2.924l5.613 11.076h-3.075zM93.737 9.48c-.3-.584-.678-.947-1.42-.947-.74 0-1.119.363-1.418.947L88.583 14h7.45l-2.296-4.52zm22.391-3.31c3.357 0 5.434 1.534 5.434 4.297 0 1.937-1.02 3.129-2.795 3.653 1.738.564 2.495 1.695 2.495 3.129v2.722h-2.954v-2.783c0-.766-.419-1.756-2.237-1.756h-8.946v4.54h-2.855V6.17h11.858zm.22 6.698c1.758 0 2.296-1.172 2.296-2.078 0-.907-.538-2.079-2.296-2.079h-9.229v4.157h9.229zM77.575 31.03H66.77c-3.277 0-3.675 1.453-3.675 4.096 0 2.642.398 4.076 3.675 4.076h10.804v2.823H66.77c-4.912 0-6.59-2.36-6.59-6.9 0-4.538 1.678-6.898 6.59-6.898h10.804v2.803zm5.576-2.803v13.801h-2.855V28.227h2.855zm8.865 13.801V30.83h-6.79v-2.602h16.437v2.602h-6.789v11.197h-2.858zm14.263-13.801l4.194 5.106c.419.523.958 1.047 1.359 1.755.399-.705.938-1.232 1.379-1.755l4.194-5.106h4.154l-6.749 7.446c-.439.483-1.539 1.574-1.539 2.4v3.955h-2.855v-3.955c0-.846-1.119-1.937-1.538-2.4l-6.75-7.446h4.154-.003z" fill="#343B41"/></svg>
